!!!OTL: Osterlied des 15. Jahrhunderts
!!!ARE: Europa, Mitteleuropa, Deutschland
!!!SCT: A0561
!!!YEM: Copyright 1995, estate of Helmut Schaffrath.
**kern
*ICvox
*Ivox
*M4/1
*k[f#]
*G:
{2g
=1
1.dd
2dd
1dd
1ffn
=2
1ee
1dd
1cc
2r}
{2dd
=3
1b
1g
1b
1cc
=4
1dd
1ee
1dd
2r}
{2g
=5
1.dd
2dd
1dd
1ffn
=6
1ee
1dd
1cc
2r}
{2dd
=7
1b
1g
1b
1cc
=8
1dd
1ee
1dd
1r}
=9
{1.gg
2ffn
1ee
1dd
=10
1gg
1ee
1dd
2r}
{2dd
=11
1gg
1cc
1dd
1g
=12
1b
1dd
1b
2r}
{2g
=13
2.a
4a
1cc
1b
1a
=14
1e
1fn
1g
2r}
{2g
=15
2.a
4a
1cc
1b
1a
=16
1e
1f#
1g
1a
=17
0g
1.r}
==
!!!AGN: Romanze, Ballade, Lied, religioeses Lied
!! H. Finck 1536 No. 11.
!!!ONB: ESAC (Essen Associative Code) Database: ALTDEU
!!!AMT: simple quadruple
!!!AIN: vox
!!!EED: Helmut Schaffrath
!!!EEV: 1.0
*-
